X: 30313
T: Old Man Quinn
R: hornpipe
M: 4/4
K: Cmajor
GF|:ECEG cedc|Bfdc BGFD|EGce fedc|B2 G2 GAGF|
ECEG cedc|Bfdc BGFD|EcAF (3EFG DF|1 E2C2C2 GF:|2 E2C2C2 cd||
|:eGce gfec|dGBd fdcB|cBAG ^Fedc|B2 G2 GAGF|
ECEG cedc|Bfdc BGFD|EcAF (3EFG DF|1 E2C2C2 cd:|2 E2C2C2 GF||
|:EFDE CEGc|BcAB GBdf|ecde fedc|B2G2G3c|
BcAc GcFc|EcBc (3ABc Fc|EcAF (3EFG DF|E2C2C2 GF:|

